-----BEGIN PGP SIGNATURE-----

iQJOBAABCAA4FiEElWNvNTjZJidlqym+6VLlhMqMD0UFAmlf8voaHGJpdGNvaW5t
ZWNoYW5pY0BvY2Vhbi54eXoACgkQ6VLlhMqMD0X4wxAAp9WmeZt/qnzEXogVLCOY
9BpDYaZhOWhLlkfFmiFXk8b7WvEFjo/RGOCWoXbNMEB8fIziGDD7w6AbjQe/vJly
xEaNJFLNrdAF9gnwAo4sImvC5WCYP2hLmPt6b9jD9zOCNrd5ZCN4ktdyO8BSoum1
VN0qMEBgV7or+vRZA3rjK1A5UMLTJ7pPGmKlzvMFNVsxen9lg7mkS/UH1UqnTlgN
hckov9dW7E7NPAhi4wO79sd3HWS3MEWOD5cuyLHao1H+5DplZ2GGDFkWaWDJRtCI
lZyvPwLI+Lz0Emd+zuUF0d+38AELt5YiDGPc0bQajRrpVnd1mt6M8RMwrFSxM40h
v2m34a7fc5l3giWlqS4MEM+HjizMKAdMiwN5BNzrGtBLJC929yPtWqC+Q9n0e2Yn
YB5qIyPSUv7dst8yu2+Lt0N2uOenU3AeKaJTsAHj4Rq9iCsI26KTyATDM4nP4sXS
jxEMukNU3bmdACAHGhpBZeoUlh2DDCQeGXC1+9c63LxWwlZaT8lQjxpM8JSRxDUn
o7YcSiwzKvlD8Ep6FMqg857rwP/qqkA3yPOWRZ71OTSIeHnrtCn6D8Q+GPeF0Vf2
kSFLamtl2k25FJPngzcjhR7A0wqG4oZqxuqmYZHtGPrNaH5JRN82yKaTiYcpE4I/
BGpVMLw77Llt5Qywegya+lk=
=er+L
-----END PGP SIGNATURE-----
